!!!COM: Bach, Johann Sebastian
!!!CDT: 1685/3//-1750/7/28/
!!!OTL@@DE: Christ, der du bist der helle Tag
!!!AGN: 4-Part Chorale
!!!SCT: BH 230
!!!SCT: BWV 273
**harm	**root	**kern	**kern	**kern	**kern
!	!	!bass	!tenor	!alto	!soprno
*	*Iorgan	*Iorgan	*Iorgan	*Iorgan	*Iorgan
*	*	*clefF4	*clefF4	*clefG2	*clefG2
*M4/4	*M4/4	*M4/4	*M4/4	*M4/4	*M4/4
*met(c)	*met(c)	*met(c)	*met(c)	*met(c)	*met(c)
*MM60	*MM60	*MM60	*MM60	*MM60	*MM60
*k[f#c#g#]	*k[f#c#g#]	*k[f#c#g#]	*k[f#c#g#]	*k[f#c#g#]	*k[f#c#g#]
*f#:	*f#:	*f#:	*f#:	*f#:	*f#:
i	4GG	4FF#	4A	4c#	4f#
=1	=1	=1	=1	=1	=1
i	4GG	4F#	4A	8c#	4f#
.	.	.	.	8d#	.
IIIb	8BB-	8C#	8c#	8e	4a
V7b/-VII	8CC	8D#	8B	8f#	.
-VII	8FF	8E	4B	8e	4g#
viio7	8FF#	8E#	.	8d	.
i	4GG	8F#	8A	4c#	4f#
.	.	8E	8G#	.	.
=2	=2	=2	=2	=2	=2
VI	8EE-	8Dy	16F#	8f#	4a
.	.	.	16G#	.	.
III	8BB-	8C#	4A	8e	.
iv7	8CC	8BB	.	8d	4b
-VII	8FF	8E	8G#	8e	.
III;	4BB-;	4AA;	4A;	4e;	4cc#;
III	4BB-	4AA	8A	4e	4cc#
.	.	.	8B	.	.
=3	=3	=3	=3	=3	=3
IIIb	4BB-	8A	8c#	4e	4cc#
.	.	8G#	8B	.	.
i	4GG	4F#	4A	4f#	8cc#
.	.	.	.	.	8dd
-VII	4FF	4E	4B	4g#	8ee
.	.	.	.	.	8dd
i	4GG	8F#	8A	[4a	4cc#
.	.	8E	8c#	.	.
=4	=4	=4	=4	=4	=4
ivb	4CC	4D	4f#	8a]	4b
.	.	.	.	16g#	.
.	.	.	.	16f#	.
V7/III	4FF	4E	8e	4g#	4b
.	.	.	8d	.	.
III;	4BB-;	4AA;	4c#;	4e;	4a;
i	4GG	8F#	4c#	4f#	4a
.	.	8E	.	.	.
=5	=5	=5	=5	=5	=5
VI	4EE-	8D	4d	8f#	4a
.	.	8C#	.	8g#	.
III	4BB-	8BB	4e	4a	4cc#
.	.	8AA	.	.	.
-VII	2FF	4.E	4e	8a	4b
.	.	.	.	16g#	.
.	.	.	.	16f#	.
.	.	.	4B	4e	4g#
.	.	8D	.	.	.
=6	=6	=6	=6	=6	=6
III	4BB-	8C#	4.A	4e	4a
.	.	8AA	.	.	.
-VII	4FF	4E	.	4e	4b
.	.	.	8G#	.	.
III;	4BB-;	4AA;	4A;	4e;	4cc#;
III	4BB-	4AA	4A	4e	4cc#
=7	=7	=7	=7	=7	=7
III	4BB-	8AA	4A	4e	4cc#
.	.	8BB	.	.	.
III	4BB-	8C#	[4A	4e	4cc#
.	.	8D	.	.	.
-VII	4FF	4E	8A]	8.e	4b
.	.	.	8G#	.	.
.	.	.	.	16d	.
V7	4DD	8E#	[4G#	[4c#	4b
.	.	8C#	.	.	.
=8	=8	=8	=8	=8	=8
i	4GG	4F#	8G#]	4c#]	4.a
.	.	.	8F#	.	.
vii7o/V	4CC#	4BB#	8F#	4d#	.
.	.	.	16G#	.	16g#
.	.	.	16A	.	16f#
v;	4DD;	4C#;	4G#;	4c#;	4e;
III	4BB-	8AA	8A	4c#	4e
.	.	8GG#	8B	.	.
=9	=9	=9	=9	=9	=9
i	4GG	4FF#	8c#	8f#	8a
.	.	.	8B	8g#	8b
i	4GG	8F#	8A	4a	4cc#
.	.	8E	8G#	.	.
V7b/-VII	4CC	4D#	4F#	4a	4b
V	4DD	4E#	4c#	4g#	4cc#
=10	=10	=10	=10	=10	=10
i	8GG	8F#	8c#	8g#	4a
V7/-VII	8CC	8BB	8d	4f#	.
V	4DD	4C#	8G#	.	4g#
.	.	.	8c#	8e#	.
i;	4GG;	4FF#;	4A;	4c#;	4f#;
==	==	==	==	==	==
*-	*-	*-	*-	*-	*-
!!chor2scor: -l 2 -s 0.6 -o %b.pmx
!!!YEC: Copyright 2003 by Craig Stuart Sapp
!!!SMA: 371 Bach Chorales, edited by Ludwig Erk, C.F. Peters
!!!PDT: 1850, 1865
!!!ONB: Harmony and Root analysis done manually by Craig Sapp
